icons/src/pencil.and.outline.svg

<?xml version="1.0" encoding="UTF-8"?>
<!--Generator: Apple Native CoreSVG 341-->
<!DOCTYPE svg
PUBLIC "-//W3C//DTD SVG 1.1//EN"
       "http://www.w3.org/Graphics/SVG/1.1/DTD/svg11.dtd">
<svg version="1.1" xmlns="http://www.w3.org/2000/svg" xmlns:xlink="http://www.w3.org/1999/xlink" viewBox="0 0 20.8374 22.9724">
 <g>
  <rect height="22.9724" opacity="0" width="20.8374" x="0" y="0"/>
  <path d="M14.5312 2.72041L13.4952 3.75643C11.9079 2.81832 10.1186 2.27233 8.34839 2.27233C4.10035 2.27233 1.55152 5.28015 1.55152 9.16687C1.55152 13.8055 5.09644 19.1669 12.0691 20.1727C12.5183 20.2313 12.7332 20.5536 12.7332 20.8758C12.7332 21.2274 12.45 21.5985 11.9031 21.5301C5.67261 20.9247 0.174565 15.6317 0.174565 9.20593C0.174565 4.4989 3.34839 0.895381 8.38746 0.895381C10.5051 0.895381 12.6548 1.56053 14.5312 2.72041ZM20.3113 12.3505C20.3113 15.788 17.948 18.1122 14.5984 18.1122C12.3454 18.1122 9.8845 17.0643 7.97681 15.366L9.47576 14.7025C11.0064 15.988 12.8646 16.8036 14.5789 16.8036C16.9714 16.8036 18.9636 15.1141 18.9636 12.3407C18.9636 10.4873 18.3075 8.70163 17.2213 7.16776L18.2403 6.15266C19.526 7.92699 20.3113 10.0524 20.3113 12.3505Z" fill="white"/>
  <path d="M8.78785 13.4735L17.5574 4.71374L16.1023 3.26843L7.34253 12.0184L6.53199 13.8837C6.45386 14.0887 6.65894 14.3036 6.87378 14.2255ZM18.2703 4.01062L19.0515 3.22937C19.4226 2.85827 19.4421 2.3114 19.0613 1.95983L18.8074 1.72546C18.4753 1.41296 17.948 1.41296 17.5964 1.76452L16.825 2.55554Z" fill="white"/>
 </g>
</svg>

<!--Generator: Apple Native CoreSVG 341-->
<!DOCTYPE svg  PUBLIC '-//W3C//DTD SVG 1.1//EN'  'http://www.w3.org/Graphics/SVG/1.1/DTD/svg11.dtd'>
<svg version="1.1" viewBox="0 0 20.837 22.972" xmlns="http://www.w3.org/2000/svg">
 <rect width="20.837" height="22.972" opacity="0"/>
 <path d="m14.531 2.7204-1.036 1.036c-1.5873-0.93811-3.3766-1.4841-5.1468-1.4841-4.248 0-6.7969 3.0078-6.7969 6.8945 0 4.6386 3.5449 10 10.518 11.006 0.4492 0.0586 0.6641 0.3809 0.6641 0.7031 0 0.3516-0.2832 0.7227-0.8301 0.6543-6.2305-0.6054-11.729-5.8984-11.729-12.324 0-4.707 3.1738-8.3105 8.2129-8.3105 2.1176 0 4.2673 0.66515 6.1437 1.825zm5.7801 9.6301c0 3.4375-2.3633 5.7617-5.7129 5.7617-2.253 0-4.7139-1.0479-6.6216-2.7462l1.499-0.6635c1.5306 1.2855 3.3888 2.1011 5.1031 2.1011 2.3925 0 4.3847-1.6895 4.3847-4.4629 0-1.8534-0.6561-3.6391-1.7423-5.1729l1.019-1.0151c1.2857 1.7743 2.071 3.8997 2.071 6.1978z" fill="#fff"/>
 <path d="m8.7878 13.474 8.7696-8.7598-1.4551-1.4453-8.7598 8.75-0.81054 1.8653c-0.07813 0.205 0.12695 0.4199 0.34179 0.3418zm9.4824-9.4629 0.7812-0.78125c0.3711-0.3711 0.3906-0.91797 0.0098-1.2695l-0.2539-0.23437c-0.3321-0.3125-0.8594-0.3125-1.211 0.03906l-0.7714 0.79102z" fill="#fff"/>
</svg>
